!!!!SEGMENT: pl-sa--l-1636--072_anonim--keyboard-piece.krn
!!!cenid: 17xx:779
!!!COM: Anonim
!!!COM-rism: pe30004985
!!!CDT:
!!!CNT:
!!!OTL: Keyboard piece
!!!PDT:
!!!AGN: Secular
!!!SMS-siglum: PL-SA
!!!SMS-shelfmark: L 1636
!!!NIFC-rismID: 1001076913
!!!URL-scan: http://repozytorium.nifc.pl/skany/pl-sa-nut--l1636
!!!ONB-nifc: 21v, skan 0025, s. 1-4
!!!SMS-variant:
!!!SMS-altvar:
**kern	**kern
*part1	*part1
*staff2	*staff1
*I"[Keyboard]	*
*I'keyb	*
*clefF4	*clefG2
*k[]	*k[]
*M2/2	*M2/2
*met(c|)	*met(c|)
=1	=1
1G#X 1E 1EE	1b 1g#X
=2-	=2-
*^	*
2G#X 2E/	1EE	2b 2g#X 2e/
2G#X 2E/	.	2b 2g# 2e/
=3	=3	=3
*	*	*^
2A 2E/	2AA/	2cc 2a/	1e
2B/	2G#X\	2b 2g#X/	.
*	*	*v	*v
=4-	=4-	=4-
1ryy	8A\L	1cc 1a 1e
.	8E\	.
.	8F\	.
.	8G#\J	.
!	!LO:TX:a:t=P:problem:mixed beam	!
.	8A\L	.
.	8AA/	.
.	8C/	.
.	8D/J	.
=5	=5	=5
*	*	*^
*	*2\right	*	*2\right
2E/	2EE/	2b 2g#X/	2e\
2C/	2CC/	2gg 2ee/	2b\
=6	=6	=6	=6
2D/	2DD\	2ff 2dd/	4a\
.	.	.	4b\
2E/	2EE\	2ee/	2cc\
=7	=7	=7	=7
4F/	2FF\	1dd	2cc\
4E/	.	.	.
2D/	2GG\	.	2b\
*	*	*v	*v
=8	=8	=8
1C	1CC	4cc\
.	.	8gg\L
.	.	8ff\J
.	.	8ee\L
.	.	8dd\
.	.	8cc\
.	.	8b\J
!!LO:LB:g=original
=9	=9	=9
!LO:TX:a:t=P:problem:nuta/y niewidoczna/e - defekt źródła	!	!
2ryy	2ryy	2a/
2G/	2BB\	2b/
*v	*v	*
=10-	=10-
1A	1cc
=11	=11
*^	*
4G#X/	4E\	8b\L
.	.	8b\
8A/L	4D\	8cc\
8B/J	.	8dd\J
8c/L	4C\	8ee\L
16B/L	.	16dd\L
16c/JJ	.	16ee\JJ
4A/	4F\	4cc\
*clefC4	*	*
=12	=12	=12
8d/L	4D\	8ff\L
16c/L	.	16ee\L
16d/JJ	.	16ff\JJ
4B/	4G\	4dd\
8e/L	4E\	8gg\L
16d/L	.	16ff\L
16e/JJ	.	16gg\JJ
4c/	4A\	4ee\
*	*	*clefG1
=13	=13	=13
8f/L	4F\	8aa\L
16e/L	.	16gg\L
16f/JJ	.	16aa\JJ
4d/	4B-X\	4ff\
8e/L	4D\	8gg\L
16d/L	.	16ff\L
16e/JJ	.	16gg\JJ
4c/	4A\	4ee\
=14	=14	=14
8d/L	4F 4D\	8ff\L
16c/L	.	16ee\L
16d/JJ	.	16ff\JJ
4B/	4G\	8dd\L
.	.	16cc\L
.	.	16dd\JJ
8c/L	4E 4C\	8ee\L
16B/L	.	16dd\L
16c/JJ	.	16ee\JJ
4A/	4F\	8cc/L
.	.	16b/L
.	.	16cc/JJ
!!LO:LB:g=original
=15	=15	=15
*clefF4	*	*clefG2
8B/L	4D\	8dd\L
16A/L	.	16cc\L
16B/JJ	.	16dd\JJ
8G#X/L	4E#\	8b\L
16F/L	.	16a\L
16G#/JJ	.	16b\JJ
8A/L	4C\	8cc\L
16G#/L	.	16b\L
16A/JJ	.	16cc\JJ
8F#X/L	4D\	8a/L
16E#/L	.	16g/L
16F#/JJ	.	16a/JJ
=16	=16	=16
*	*	*^
8G/L	4BB\	8b/L	2ryy
16F/L	.	16a/L	.
16G/JJ	.	16b/JJ	.
8E/L	4C\	8g#/L	.
16D/L	.	16f#X/L	.
16E/JJ	.	16g#/JJ	.
2ryy	4AA/	4a/	4f#\
.	4C/	4g#/	4e\
*v	*v	*	*
=17	=17	=17
4AA/	2f#X/	4e\
4BB/	.	4d#X\
!	!LO:TX:a:t=P:problem:mixed beam	!
2E 2EE/	16e/LL	2ryy
.	16b\	.
.	16cc\	.
.	16dd\JJ	.
.	16ee\LL	.
.	16dd\	.
.	16ee\	.
.	16b\JJ	.
*	*v	*v
=18	=18
*^	*
4A/	4AA\	4cc\
4G/	4BB\	4b/
4G/	4C\	2a/
4F#X/	4D\	.
=19	=19	=19
!	!	!LO:TX:a:t=P:problem:mixed beam
2G 2D 2BB/	2GG/	8g\L
.	.	16dd\L
.	.	16cc\JJ
.	.	16b/LL
.	.	16a/
.	.	16g/
.	.	16f/JJ
!	!	!LO:TX:a:t=P:problem:w tym miejsu łamanie systemu
!	!	!LO:TX:a:t=P:problem:mixed beam
!!LO:LB:g=original	!	!
2G 2E/	2C\	8e/L
.	.	16gg\L
.	.	16ff\JJ
.	.	16ee\LL
.	.	16dd\
.	.	16cc\
.	.	16b\JJ
!!!LO:LB:g=original	!	!
=20	=20	=20
2F#X/	2D\	2a/
2G#X/	2BB\	2b/
*v	*v	*
=21	=21
1A 1E 1AA	1cc
!LO:TX:a:t=P:problem:w źródle końcowa kreska taktowa :||:	!LO:TX:a:t=P:problem:w źródle końcowa kreska taktowa :||:
==	==
*-	*-
!!!system-decoration: s1,s2
!!!EED: Antoni Szymański
!!!EST: 2020-12-08
!!!ENC: Tomasz Grochalski
!!!END: 2020-06-12
